X: 10728
T: Dr John Hart
R: waltz
M: 3/4
K: Amajor
e2ce/f/ ec|ed cB A2|B2A/B/c A/B/c|{c}BA F2F2|
ae ab c'b|ab af ae|fa/b/ af ec|B2ce f2|
fc ef ec|A2A2A2|{cd}ec fe e/c/B/A/|B2Bc B2|
{cd}ed cB A>A|Bc BA G3/2F/|EA GB Ac|B2A2A2||
E/C/E/F/ EC B,A,|E2EF E2|{A}FE FA FE|C2EF F2|
AG AB cB|AB cd ed|cd ef ed/c/|{c}B2GA B2|
{f}ec AF E/D/C/B,/|A,2A2A2|{Ac}ec/e/ fe/f/ af|e2cB B2|
{cd}ed cB A>A|Bc BA G3/2F/|EA GB Ac|B2A2A2||

